app/assets/images/icons/gear.svg

<?xml version="1.0" encoding="UTF-8"?>
<svg width="16px" height="16px" viewBox="0 0 16 16" version="1.1" xmlns="http://www.w3.org/2000/svg" xmlns:xlink="http://www.w3.org/1999/xlink">
    <title>icon</title>
    <g id="icon" stroke="none" stroke-width="1" fill="none" fill-rule="evenodd">
        <g id="􀣌" fill="#000000" fill-rule="nonzero">
            <path d="M7.31105882,15.9924706 L8.68894118,15.9924706 C9.13317647,15.9924706 9.472,15.7289412 9.56235294,15.2922353 L9.94635294,13.6884706 C10.2023529,13.5981176 10.4508235,13.5002353 10.6767059,13.3948235 L12.0771765,14.2531765 C12.4461176,14.4865882 12.8752941,14.4489412 13.184,14.1402353 L14.1477647,13.1764706 C14.4564706,12.8677647 14.5016471,12.416 14.2531765,12.0470588 L13.4023529,10.6616471 C13.5077647,10.4282353 13.6131765,10.1872941 13.6884706,9.95388235 L15.2997647,9.56988235 C15.7364706,9.472 16,9.14070588 16,8.69647059 L16,7.34117647 C16,6.89694118 15.7364706,6.56564706 15.2997647,6.46776471 L13.7035294,6.08376471 C13.6131765,5.81270588 13.5077647,5.57176471 13.4174118,5.36847059 L14.2682353,3.95294118 C14.5091765,3.57647059 14.4790588,3.15482353 14.1628235,2.83858824 L13.184,1.87482353 C12.8677647,1.58870588 12.4762353,1.536 12.0997647,1.74682353 L10.6767059,2.62023529 C10.4583529,2.51482353 10.2174118,2.41694118 9.94635294,2.32658824 L9.56235294,0.700235294 C9.472,0.263529412 9.13317647,0 8.68894118,0 L7.31105882,0 C6.85929412,0 6.528,0.263529412 6.43011765,0.707764706 L6.05364706,2.31152941 C5.79011765,2.40188235 5.53411765,2.49976471 5.30823529,2.61270588 L3.89270588,1.74682353 C3.51623529,1.536 3.12470588,1.58117647 2.80847059,1.87482353 L1.82964706,2.83858824 C1.51341176,3.15482353 1.48329412,3.57647059 1.72423529,3.95294118 L2.57505882,5.36847059 C2.48470588,5.57176471 2.37929412,5.81270588 2.29647059,6.08376471 L0.700235294,6.46776471 C0.263529412,6.56564706 0,6.89694118 0,7.34117647 L0,8.69647059 C0,9.14070588 0.263529412,9.472 0.700235294,9.56988235 L2.31152941,9.95388235 C2.38682353,10.1872941 2.48470588,10.4282353 2.59011765,10.6616471 L1.73929412,12.0470588 C1.49082353,12.416 1.536,12.8677647 1.84470588,13.1764706 L2.80847059,14.1402353 C3.11717647,14.4489412 3.55388235,14.4865882 3.92282353,14.2531765 L5.31576471,13.3948235 C5.54164706,13.5002353 5.79011765,13.5981176 6.05364706,13.6884706 L6.43011765,15.2922353 C6.528,15.7289412 6.85929412,15.9924706 7.31105882,15.9924706 Z M8.00376471,10.6315294 C6.55058824,10.6315294 5.36094118,9.44188235 5.36094118,7.98870588 C5.36094118,6.55058824 6.55058824,5.36094118 8.00376471,5.36094118 C9.44941176,5.36094118 10.6315294,6.55058824 10.6315294,7.98870588 C10.6315294,9.44188235 9.44941176,10.6315294 8.00376471,10.6315294 Z" id="Shape"></path>
        </g>
    </g>
</svg>

<svg width="16" height="16" xmlns="http://www.w3.org/2000/svg">
    <path d="M7.311 15.992H8.69c.444 0 .783-.263.873-.7l.384-1.604a8.1 8.1 0 0 0 .73-.293l1.401.858c.37.234.798.196 1.107-.113l.964-.964a.87.87 0 0 0 .105-1.129l-.85-1.385c.105-.234.21-.475.285-.708L15.3 9.57c.436-.098.7-.43.7-.874V7.341c0-.444-.264-.775-.7-.873l-1.596-.384a7.836 7.836 0 0 0-.287-.716l.851-1.415c.241-.377.211-.798-.105-1.114l-.979-.964c-.316-.286-.708-.339-1.084-.128l-1.423.873a6.137 6.137 0 0 0-.73-.293L9.561.7C9.472.264 9.133 0 8.69 0H7.31c-.452 0-.783.264-.88.708l-.377 1.604a6.15 6.15 0 0 0-.746.3l-1.415-.865c-.377-.211-.768-.166-1.085.128l-.978.964c-.317.316-.347.737-.106 1.114l.851 1.415c-.09.204-.196.445-.279.716L.7 6.468c-.436.098-.7.429-.7.873v1.355c0 .445.264.776.7.874l1.612.384c.075.233.173.474.278.708l-.85 1.385a.87.87 0 0 0 .105 1.13l.963.963c.31.309.746.347 1.115.113l1.393-.858c.226.105.474.203.738.293l.376 1.604c.098.437.43.7.881.7Zm.693-5.36A2.651 2.651 0 0 1 5.36 7.989c0-1.438 1.19-2.628 2.643-2.628a2.64 2.64 0 0 1 2.628 2.628c0 1.453-1.183 2.643-2.628 2.643Z"/>
</svg>
